!!!!SEGMENT: pl-wtm--670-sp-3678--001-008_weber-carl-maria-von--piosenki-dla-mlodocianego-wieku-piotr-maszynski-8-lato.krn
!!!cenid: 18xx:4760
!!!COM: Weber, Carl Maria von
!!!COM-rismID: pe117485
!!!CDT: 1786/11/19-1826/06/05
!!!CNT: German
!!!GTL: Piosenki dla młodocianego wieku (Piotr Maszyński)
!!!OTL: 8. Lato
!!!OMV: 008
!!!PDT: 1871
!!!AGN: Secular; Song; Children
!!!YEC: Copyright 2022 Narodowy Instytut Fryderyka Chopina (https://polishscores.org)
!!!YEM: License CC-BY-4.0 (https://creativecommons.org/licenses/by/4.0)
!!!SMS-siglum: PL-Wtm
!!!SMS-shelfmark: 670 śp 3678
!!!SMS-variant:
!!!SMS-altvar:
!!!SMS-shelfwork: 001-008 G
!!!NIFC-rismSourceID: 1001185478
!!!NIFC-rismChildID: 1001185478
!!!NIFC-islandoraID: pl-wtm:57754
!!!URL-pdf-islandora: https://repozytorium.nifc.pl/islandora/object/pl-wtm%3A57754/datastream/PDF/view
!!!URL-scan: https://polish.musicsources.pl/pl/lokalizacje/galeria/druki-muzyczne/19483/7 @EN{Scan on Polish Music Sources Website} @PL{Skany w portalu Dziedzictwo Muzyki Polskiej w otwartym dostępie}
!!!IIIF:
!!!ONB-nifc:
!!!AIN: 1 canto 1 piano
!!!key: A
**kern	**kern	**fing	**dynam	**kern	**text	**text	**text	**dynam
*part2	*part2	*	*part2	*part1	*part1	*part1	*part1	*part1
*staff3	*staff2	*	*staff2/3	*staff1	*staff1	*staff1	*staff1	*
*IGacmp	*IGacmp	*	*	*	*	*	*	*
*ICklav	*ICklav	*	*	*ICvox	*	*	*	*
*Ipiano	*Ipiano	*	*	*Icanto	*	*	*	*
*I"Fortepian.	*I"Fortepian.	*	*	*I"Śpiew.	*	*	*	*
*I'	*I'	*	*	*I'	*	*	*	*
*clefF4	*clefG2	*	*	*clefG2	*	*	*	*
*k[f#c#g#]	*k[f#c#g#]	*	*	*k[f#c#g#]	*	*	*	*
*A:	*A:	*	*	*A:	*	*	*	*
*M2/4	*M2/4	*	*	*M2/4	*	*	*	*
=1	=1	=1	=1	=1	=1	=1	=1	=1
!!LO:TX:a:B:t=Allegro commodo.
!	!	!	!LO:DY:rj	!	!	!	!	!LO:DY:a
4A'\	4a 4e 4c#'/	.	f	4a'/	Tra-	Tra-	Tra-	f
4AA'/	4cc# 4a 4e'/	.	.	4cc#'\	-la-	-la-	-la-	.
=2	=2	=2	=2	=2	=2	=2	=2	=2
4E\	4b 4g# 4e/	.	.	4b\	-la,	-la,	-la,	.
4r	8r	.	.	8r	.	.	.	.
*	*	*below	*	*	*	*	*	*
.	8e/	2	.	8e/	już	już	już	.
=3	=3	=3	=3	=3	=3	=3	=3	=3
4E\	8f#L 8d/	.	.	8f#/	la-	la-	la-	.
.	8e/	.	.	8e/	-to	-to	-to	.
4E\	8f# 8d/	.	.	8f#/	na-	na-	na-	.
.	8g#/J	.	.	8g#/	-dejść	-dejść	-dejść	.
=4	=4	=4	=4	=4	=4	=4	=4	=4
*	*	*above	*	*	*	*	*	*
8A'\L	4a 4c#/	2 5	.	4a/	ma!	ma!	ma!	.
8E'\	.	.	.	.	.	.	.	.
8AA'\J	8r	.	.	8r	.	.	.	.
*	*	*below	*	*	*	*	*	*
!	!	!	!	!	!	!	!	!LO:DY:a
8r	8e/	3	mf	8e/	Wyj-	Wyj-	Nie	mf
!!LO:LB:g=original
=5	=5	=5	=5	=5	=5	=5	=5	=5
8AA'\L	8eL 8c#/'	.	.	8e/	-dzie-	-dzie-	dłu-	.
*	*	*above	*	*	*	*	*	*
8E'\	8cc# 8e/'	1 5	.	8cc#\	-my	-my	-go	.
8A'\	8cc# 8e/'	.	.	8cc#\	na	na	słoń-	.
8E'\J	8bJ 8d/'	.	.	8b\	przy-	spot-	-ce,	.
=6	=6	=6	=6	=6	=6	=6	=6	=6
8AA'\L	(8aL 8c#/	2 5	.	(8a/L	-dro-	-ka-	cie-	.
8E'\	8f#J 8d/)	1 4	.	8f#/J)	.	.	.	.
8A'\	8e 8c#/'J	2 3	.	8e/	-że,	-nie,	-pło	.
8E'\J	8e 8c#/'	.	.	8e/	tam	bę-	o-	.
=7	=7	=7	=7	=7	=7	=7	=7	=7
8AA'\L	8f#L 8d/'	1 2	.	8f#/	la-	-dzie-	-ży-	.
8E'\	8g# 8d/'	.	<	8g#/	-to	-my	-wi	.
8G#'\	8a 8d/'	.	.	8a/	wi-	wo-	zie-	.
8E'\J	8bJ 8d/'	.	[[	8b\	-dać,	-łać	-mię	.
=8	=8	=8	=8	=8	=8	=8	=8	=8
*	*^	*	*	*	*	*	*	*
8AA'/L	(4e/	4.c#\	2 3	>	4e/	mo-	na	skrze-	.
8E'/	.	.	.	.	.	.	.	.	.
8AA'/J	8a/)	.	.	.	8a/	-że.	nie.	-płą.	.
.	.	.	.	]	.	.	.	.	.
8r	8r	8ryy	.	.	8r	.	.	.	.
*	*v	*v	*	*	*	*	*	*	*
=9	=9	=9	=9	=9	=9	=9	=9	=9
!	!	!	!	!	!	!	!	!LO:DY:a
4c# 4A'\	4a 4e/'	1 3	.	4a'/	Tra-	Tra-	Tra-	f
4e 4A'\	4cc# 4a\'	2 4	.	4cc#'\	-la-	-la-	-la-	.
!!LO:LB:g=original
=10	=10	=10	=10	=10	=10	=10	=10	=10
4.e 4.c#\	4.ee 4.a^<\	1 5	.	4.ee\	-la,	-la,	-la,	.
8r	(16cc#\LL	5	.	(16cc#\LL	już	już	już	.
.	16a\JJ	.	.	16a\JJ)	.	.	.	.
=11	=11	=11	=11	=11	=11	=11	=11	=11
8c# 8A 8E\	8e/L)	.	.	8e/	la-	la-	la-	.
8r	(16e/L	.	.	(16e/LL	-to	-to	-to	.
.	16a/JJ	.	.	16a/JJ)	.	.	.	.
8d 8G# 8E\	8cc#'\L)	.	.	8cc#\	na-	na-	na-	.
8r	8b'\J	.	.	8b\	-dejść	-dejść	-dejść	.
=12	=12	=12	=12	=12	=12	=12	=12	=12
8c# 8A\	8a/L	.	.	4a/	ma!	ma!	ma!	.
!	!	!	!LO:DY:rj	!	!	!	!	!
8r	(16e/L	.	mf	.	.	.	.	.
.	16a/JJ	.	.	.	.	.	.	.
8d 8G# 8E\	8cc#'\L)	.	.	4r	.	.	.	.
8r	8b'\J	.	.	.	.	.	.	.
=13	=13	=13	=13	=13	=13	=13	=13	=13
8c# 8A\	8a/L	.	.	2r	.	.	.	.
!	!	!	!LO:HP:t=dim.	!	!	!	!	!
8r	(16e/L	.	>	.	.	.	.	.
.	16cc#/JJ	.	.	.	.	.	.	.
8c# 8A\	8a'/L)	.	.	.	.	.	.	.
8r	(16e/L	.	.	.	.	.	.	.
.	16cc#/JJ	.	.	.	.	.	.	.
=14	=14	=14	=14	=14	=14	=14	=14	=14
4.c# 4.A\	4.a/)	.	p	2r	.	.	.	.
8r	8r	.	.	.	.	.	.	.
==	==	==	==	==	==	==	==	==
*-	*-	*-	*-	*-	*-	*-	*-	*-
!!!system-decoration: s1{(s2,s3)}
!!!RDF**kern: > = above
!!!RDF**kern: < = below
!!!RDF**kern: N = linked
!!!ENC: Andrzej Gręziak
!!!EED: Katarzyna Serwa
!!!END: 2025-03-25
!!!EEV: 2025-03-27
